gilbertguide/assets/images/item_9680.svg

<?xml version="1.0" standalone="no"?><!DOCTYPE svg PUBLIC "-//W3C//DTD SVG 1.1//EN" "http://www.w3.org/Graphics/SVG/1.1/DTD/svg11.dtd"><svg xmlns="http://www.w3.org/2000/svg" version="1.1" width="195.5px" height="54px" viewBox="0 0 195.5 54"><desc>Hiking</desc><defs/><g id="Polygon11261"><path d="m43.5 19.2l0 4.2l4 0l0-4.2l2.5 0l0 10.8l-2.5 0l0-4.5l-4 0l0 4.5l-2.4 0l0-10.8l2.4 0zm8.5 10.8l0-7.8l2.5 0l0 7.8l-2.5 0zm2.6-10c0 .7-.5 1.2-1.4 1.2c-.7 0-1.2-.5-1.2-1.2c0-.7.5-1.2 1.3-1.2c.8 0 1.2.5 1.3 1.2zm4.3 5.5c0 0 0-.03 0 0c.2-.4.4-.7.6-1c-.04.03 1.5-2.3 1.5-2.3l3 0l-2.8 3.1l3.2 4.7l-3 0l-1.9-3.2l-.6.8l0 2.4l-2.5 0l0-11.4l2.5 0l0 6.9zm6.4 4.5l0-7.8l2.4 0l0 7.8l-2.4 0zm2.5-10c0 .7-.5 1.2-1.3 1.2c-.8 0-1.3-.5-1.3-1.2c0-.7.5-1.2 1.3-1.2c.8 0 1.3.5 1.3 1.2zm1.8 4.7c0-1 0-1.8 0-2.5c-.02-.02 2.1 0 2.1 0l.1 1.1c0 0 .06-.04.1 0c.3-.5 1.1-1.3 2.4-1.3c1.6 0 2.8 1.1 2.8 3.4c-.03-.02 0 4.6 0 4.6l-2.5 0c0 0 .04-4.34 0-4.3c0-1-.3-1.7-1.2-1.7c-.7 0-1.1.4-1.2.9c-.1.1-.1.4-.1.6c-.02-.01 0 4.5 0 4.5l-2.5 0c0 0 .05-5.33 0-5.3zm16.8 4.2c0 1.5-.3 2.7-1.2 3.5c-.8.7-2 .9-3.1.9c-1.1 0-2.1-.2-2.9-.5c0 0 .5-1.9.5-1.9c.5.3 1.4.6 2.3.6c1.2 0 2-.6 2-2.1c.03.02 0-.5 0-.5c0 0 0 .03 0 0c-.5.7-1.2 1-2.1 1c-1.9 0-3.3-1.5-3.3-3.8c0-2.5 1.6-4.1 3.5-4.1c1.1 0 1.8.5 2.2 1.1c-.03.02 0 0 0 0l.1-.9c0 0 2.1-.02 2.1 0c0 .5-.1 1.1-.1 2.3c0 0 0 4.4 0 4.4zm-2.4-3.5c0-.2 0-.3 0-.5c-.2-.6-.7-1.1-1.4-1.1c-.9 0-1.6.8-1.6 2.3c0 1.1.6 2 1.6 2c.7 0 1.2-.4 1.3-.9c.1-.2.1-.5.1-.7c0 0 0-1.1 0-1.1z" stroke="none" fill="#fff"/></g></svg>

<?xml version="1.0" standalone="no"?><!DOCTYPE svg PUBLIC "-//W3C//DTD SVG 1.1//EN" "http://www.w3.org/Graphics/SVG/1.1/DTD/svg11.dtd"><svg xmlns="http://www.w3.org/2000/svg" version="1.1" width="219.4px" height="54px" viewBox="0 0 219.4 54">  <desc>Hiking</desc>  <defs/>  <g id="Polygon11131">    <path d="M 43.5 19.2 L 43.5 23.4 L 47.5 23.4 L 47.5 19.2 L 50 19.2 L 50 30 L 47.5 30 L 47.5 25.5 L 43.5 25.5 L 43.5 30 L 41.1 30 L 41.1 19.2 L 43.5 19.2 Z M 52 30 L 52 22.2 L 54.5 22.2 L 54.5 30 L 52 30 Z M 54.6 20 C 54.6 20.7 54.1 21.2 53.2 21.2 C 52.5 21.2 52 20.7 52 20 C 52 19.3 52.5 18.8 53.3 18.8 C 54.1 18.8 54.5 19.3 54.6 20 Z M 58.9 25.5 C 58.9 25.5 58.9 25.47 58.9 25.5 C 59.1 25.1 59.3 24.8 59.5 24.5 C 59.46 24.53 61 22.2 61 22.2 L 64 22.2 L 61.2 25.3 L 64.4 30 L 61.4 30 L 59.5 26.8 L 58.9 27.6 L 58.9 30 L 56.4 30 L 56.4 18.6 L 58.9 18.6 L 58.9 25.5 Z M 65.3 30 L 65.3 22.2 L 67.7 22.2 L 67.7 30 L 65.3 30 Z M 67.8 20 C 67.8 20.7 67.3 21.2 66.5 21.2 C 65.7 21.2 65.2 20.7 65.2 20 C 65.2 19.3 65.7 18.8 66.5 18.8 C 67.3 18.8 67.8 19.3 67.8 20 Z M 69.6 24.7 C 69.6 23.7 69.6 22.9 69.6 22.2 C 69.58 22.18 71.7 22.2 71.7 22.2 L 71.8 23.3 C 71.8 23.3 71.86 23.26 71.9 23.3 C 72.2 22.8 73 22 74.3 22 C 75.9 22 77.1 23.1 77.1 25.4 C 77.07 25.38 77.1 30 77.1 30 L 74.6 30 C 74.6 30 74.64 25.66 74.6 25.7 C 74.6 24.7 74.3 24 73.4 24 C 72.7 24 72.3 24.4 72.2 24.9 C 72.1 25 72.1 25.3 72.1 25.5 C 72.08 25.49 72.1 30 72.1 30 L 69.6 30 C 69.6 30 69.65 24.67 69.6 24.7 Z M 86.4 28.9 C 86.4 30.4 86.1 31.6 85.2 32.4 C 84.4 33.1 83.2 33.3 82.1 33.3 C 81 33.3 80 33.1 79.2 32.8 C 79.2 32.8 79.7 30.9 79.7 30.9 C 80.2 31.2 81.1 31.5 82 31.5 C 83.2 31.5 84 30.9 84 29.4 C 84.03 29.42 84 28.9 84 28.9 C 84 28.9 84 28.93 84 28.9 C 83.5 29.6 82.8 29.9 81.9 29.9 C 80 29.9 78.6 28.4 78.6 26.1 C 78.6 23.6 80.2 22 82.1 22 C 83.2 22 83.9 22.5 84.3 23.1 C 84.27 23.12 84.3 23.1 84.3 23.1 L 84.4 22.2 C 84.4 22.2 86.5 22.18 86.5 22.2 C 86.5 22.7 86.4 23.3 86.4 24.5 C 86.4 24.5 86.4 28.9 86.4 28.9 Z M 84 25.4 C 84 25.2 84 25.1 84 24.9 C 83.8 24.3 83.3 23.8 82.6 23.8 C 81.7 23.8 81 24.6 81 26.1 C 81 27.2 81.6 28.1 82.6 28.1 C 83.3 28.1 83.8 27.7 83.9 27.2 C 84 27 84 26.7 84 26.5 C 84 26.5 84 25.4 84 25.4 Z " stroke="none" fill="#fff"/>  </g></svg>
